X: 2004
T: Dusty Miller
C:Bill Monroe
B: steve tunes
M:4/4
L:1/8
Q: 1/4=125
K:A
V:1 
|:G,"A"[A,E][A,E]=C [A,2E2] [A,E][A,E]|A,=CDE GED=C | A,G,A,B, =CDEG | A"E"BcB c"A"BA2 |
G,[A,E][A,E]=C [A,2E2] [A,E][A,E]|A,=CDE GED=C | A,G,A,B, =CDEG | A"E"BcB "A"A4:|
|:"A"eceg a2 a2 | ecef "G"=gfgf | "A"eceg a2 a2 |"E"efed "A"cA3 |
eceg a2 af | ecef "G"=gefg | "A"b2 a2 =gagf | "E"efed "A"cA3:|
|:"A"cBAc BAcd |edcB A3 F| "G"GFGA BAGB|ABAG E2 AB |
"A"c2 ec B2 cB |ABAF E2 ef | =gfgf efed |"E"cABc "A"A4:|
|:"A"c'bac' bac'd'|e'd'c'b a2 |"G"=gfga bagb|aba=g e2|
"A"ab c'2 e'c' b2|c'bab afe2 |efgf gfef |"E"edcA "A"BcA||
% abcbook-tune_id 6298c25d1107a975bad58c72


% abcbook-boost 0
% abcbook-tablature 
% abcbook-transpose 
% abcbook-lastupdated 1655985957015
% abcbook-soundfonts 
% abcbook-repeats 3


